images/50909678.svg

<?xml version="1.0" encoding="UTF-8"?>
<svg xmlns="http://www.w3.org/2000/svg" xmlns:xlink="http://www.w3.org/1999/xlink" width="300pt" height="300pt" viewBox="0 0 300 300" version="1.1">
<defs>
<g>
<symbol overflow="visible" id="glyph0-0">
<path style="stroke:none;" d="M 0.453125 1.59375 L 0.453125 -6.34375 L 4.953125 -6.34375 L 4.953125 1.59375 Z M 0.953125 1.09375 L 4.453125 1.09375 L 4.453125 -5.84375 L 0.953125 -5.84375 Z M 0.953125 1.09375 "/>
</symbol>
<symbol overflow="visible" id="glyph0-1">
<path style="stroke:none;" d="M 0.890625 -6.5625 L 4.65625 -6.5625 L 4.65625 -5.8125 L 1.765625 -5.8125 L 1.765625 -3.875 L 4.375 -3.875 L 4.375 -3.140625 L 1.765625 -3.140625 L 1.765625 0 L 0.890625 0 Z M 0.890625 -6.5625 "/>
</symbol>
<symbol overflow="visible" id="glyph0-2">
<path style="stroke:none;" d="M 0.890625 -6.5625 L 2.078125 -6.5625 L 4.984375 -1.078125 L 4.984375 -6.5625 L 5.84375 -6.5625 L 5.84375 0 L 4.65625 0 L 1.75 -5.484375 L 1.75 0 L 0.890625 0 Z M 0.890625 -6.5625 "/>
</symbol>
<symbol overflow="visible" id="glyph0-3">
<path style="stroke:none;" d="M 3.546875 -5.953125 C 2.898438 -5.953125 2.382812 -5.710938 2 -5.234375 C 1.625 -4.753906 1.4375 -4.101562 1.4375 -3.28125 C 1.4375 -2.445312 1.625 -1.789062 2 -1.3125 C 2.382812 -0.832031 2.898438 -0.59375 3.546875 -0.59375 C 4.191406 -0.59375 4.703125 -0.832031 5.078125 -1.3125 C 5.453125 -1.789062 5.640625 -2.445312 5.640625 -3.28125 C 5.640625 -4.101562 5.453125 -4.753906 5.078125 -5.234375 C 4.703125 -5.710938 4.191406 -5.953125 3.546875 -5.953125 Z M 3.546875 -6.6875 C 4.460938 -6.6875 5.195312 -6.375 5.75 -5.75 C 6.300781 -5.132812 6.578125 -4.3125 6.578125 -3.28125 C 6.578125 -2.238281 6.300781 -1.410156 5.75 -0.796875 C 5.195312 -0.179688 4.460938 0.125 3.546875 0.125 C 2.617188 0.125 1.878906 -0.179688 1.328125 -0.796875 C 0.773438 -1.410156 0.5 -2.238281 0.5 -3.28125 C 0.5 -4.3125 0.773438 -5.132812 1.328125 -5.75 C 1.878906 -6.375 2.617188 -6.6875 3.546875 -6.6875 Z M 3.546875 -6.6875 "/>
</symbol>
</g>
</defs>
<g id="surface23013">
<rect x="0" y="0" width="300" height="300" style="fill:rgb(100%,100%,100%);fill-opacity:1;stroke:none;"/>
<path style="fill:none;stroke-width:1.2;stroke-linecap:butt;stroke-linejoin:miter;stroke:rgb(20%,80%,80%);stroke-opacity:1;stroke-miterlimit:10;" d="M 264.75 127.0625 L 253.941406 125.617188 "/>
<path style="fill:none;stroke-width:1.2;stroke-linecap:butt;stroke-linejoin:miter;stroke:rgb(0%,0%,0%);stroke-opacity:1;stroke-miterlimit:10;" d="M 253.941406 125.617188 L 243.132812 124.167969 "/>
<path style=" stroke:none;fill-rule:nonzero;fill:rgb(100%,100%,100%);fill-opacity:1;" d="M 261.75 121.5625 L 267.75 121.5625 L 267.75 132.5625 L 261.75 132.5625 Z M 261.75 121.5625 "/>
<g style="fill:rgb(20%,80%,80%);fill-opacity:1;">
  <use xlink:href="#glyph0-1" x="261.75" y="130.225586"/>
</g>
<path style="fill:none;stroke-width:1.2;stroke-linecap:butt;stroke-linejoin:miter;stroke:rgb(0%,0%,0%);stroke-opacity:1;stroke-miterlimit:10;" d="M 243.132812 124.167969 L 229.816406 141.445312 "/>
<path style="fill:none;stroke-width:1.2;stroke-linecap:butt;stroke-linejoin:miter;stroke:rgb(0%,0%,0%);stroke-opacity:1;stroke-miterlimit:10;" d="M 237.734375 122.761719 L 227.082031 136.585938 "/>
<path style="fill:none;stroke-width:1.2;stroke-linecap:butt;stroke-linejoin:miter;stroke:rgb(0%,0%,0%);stroke-opacity:1;stroke-miterlimit:10;" d="M 234.828125 104 L 243.132812 124.167969 "/>
<path style="fill:none;stroke-width:1.2;stroke-linecap:butt;stroke-linejoin:miter;stroke:rgb(0%,0%,0%);stroke-opacity:1;stroke-miterlimit:10;" d="M 229.816406 141.445312 L 208.199219 138.550781 "/>
<path style="fill:none;stroke-width:1.2;stroke-linecap:butt;stroke-linejoin:miter;stroke:rgb(0%,0%,0%);stroke-opacity:1;stroke-miterlimit:10;" d="M 208.199219 138.550781 L 199.894531 118.382812 "/>
<path style="fill:none;stroke-width:1.2;stroke-linecap:butt;stroke-linejoin:miter;stroke:rgb(0%,0%,0%);stroke-opacity:1;stroke-miterlimit:10;" d="M 212.113281 134.582031 L 205.46875 118.445312 "/>
<path style="fill:none;stroke-width:1.2;stroke-linecap:butt;stroke-linejoin:miter;stroke:rgb(0%,0%,0%);stroke-opacity:1;stroke-miterlimit:10;" d="M 208.199219 138.550781 L 194.882812 155.828125 "/>
<path style="fill:none;stroke-width:1.2;stroke-linecap:butt;stroke-linejoin:miter;stroke:rgb(0%,0%,0%);stroke-opacity:1;stroke-miterlimit:10;" d="M 199.894531 118.382812 L 213.210938 101.105469 "/>
<path style="fill:none;stroke-width:1.2;stroke-linecap:butt;stroke-linejoin:miter;stroke:rgb(0%,0%,0%);stroke-opacity:1;stroke-miterlimit:10;" d="M 213.210938 101.105469 L 234.828125 104 "/>
<path style="fill:none;stroke-width:1.2;stroke-linecap:butt;stroke-linejoin:miter;stroke:rgb(0%,0%,0%);stroke-opacity:1;stroke-miterlimit:10;" d="M 214.691406 106.484375 L 231.984375 108.796875 "/>
<path style="fill:none;stroke-width:1.2;stroke-linecap:butt;stroke-linejoin:miter;stroke:rgb(0%,0%,0%);stroke-opacity:1;stroke-miterlimit:10;" d="M 194.882812 155.828125 L 184.074219 154.378906 "/>
<path style="fill:none;stroke-width:1.2;stroke-linecap:butt;stroke-linejoin:miter;stroke:rgb(0%,0%,100%);stroke-opacity:1;stroke-miterlimit:10;" d="M 184.074219 154.378906 L 173.265625 152.933594 "/>
<path style="fill:none;stroke-width:1.2;stroke-linecap:butt;stroke-linejoin:miter;stroke:rgb(0%,0%,100%);stroke-opacity:1;stroke-miterlimit:10;" d="M 173.265625 152.933594 L 169.113281 142.851562 "/>
<path style="fill:none;stroke-width:1.2;stroke-linecap:butt;stroke-linejoin:miter;stroke:rgb(0%,0%,0%);stroke-opacity:1;stroke-miterlimit:10;" d="M 169.113281 142.851562 L 164.960938 132.765625 "/>
<path style="fill:none;stroke-width:1.2;stroke-linecap:butt;stroke-linejoin:miter;stroke:rgb(0%,0%,0%);stroke-opacity:1;stroke-miterlimit:10;" d="M 159.949219 170.210938 L 166.609375 161.570312 "/>
<path style="fill:none;stroke-width:1.2;stroke-linecap:butt;stroke-linejoin:miter;stroke:rgb(0%,0%,100%);stroke-opacity:1;stroke-miterlimit:10;" d="M 166.609375 161.570312 L 173.265625 152.933594 "/>
<path style=" stroke:none;fill-rule:nonzero;fill:rgb(100%,100%,100%);fill-opacity:1;" d="M 170.265625 147.433594 L 177.265625 147.433594 L 177.265625 158.433594 L 170.265625 158.433594 Z M 170.265625 147.433594 "/>
<g style="fill:rgb(0%,0%,100%);fill-opacity:1;">
  <use xlink:href="#glyph0-2" x="170.265625" y="156.09668"/>
</g>
<path style="fill:none;stroke-width:1.2;stroke-linecap:butt;stroke-linejoin:miter;stroke:rgb(0%,0%,0%);stroke-opacity:1;stroke-miterlimit:10;" d="M 164.960938 132.765625 L 143.34375 129.871094 "/>
<path style="fill:none;stroke-width:1.2;stroke-linecap:butt;stroke-linejoin:miter;stroke:rgb(0%,0%,0%);stroke-opacity:1;stroke-miterlimit:10;" d="M 162.117188 137.5625 L 144.824219 135.25 "/>
<path style="fill:none;stroke-width:1.2;stroke-linecap:butt;stroke-linejoin:miter;stroke:rgb(0%,0%,0%);stroke-opacity:1;stroke-miterlimit:10;" d="M 143.34375 129.871094 L 130.027344 147.148438 "/>
<path style="fill:none;stroke-width:1.2;stroke-linecap:butt;stroke-linejoin:miter;stroke:rgb(0%,0%,0%);stroke-opacity:1;stroke-miterlimit:10;" d="M 130.027344 147.148438 L 119.21875 145.703125 "/>
<path style="fill:none;stroke-width:1.2;stroke-linecap:butt;stroke-linejoin:miter;stroke:rgb(100%,0%,0%);stroke-opacity:1;stroke-miterlimit:10;" d="M 119.21875 145.703125 L 108.410156 144.253906 "/>
<path style="fill:none;stroke-width:1.2;stroke-linecap:butt;stroke-linejoin:miter;stroke:rgb(0%,0%,0%);stroke-opacity:1;stroke-miterlimit:10;" d="M 130.027344 147.148438 L 138.332031 167.316406 "/>
<path style="fill:none;stroke-width:1.2;stroke-linecap:butt;stroke-linejoin:miter;stroke:rgb(0%,0%,0%);stroke-opacity:1;stroke-miterlimit:10;" d="M 135.605469 147.210938 L 142.246094 163.347656 "/>
<path style="fill:none;stroke-width:1.2;stroke-linecap:butt;stroke-linejoin:miter;stroke:rgb(100%,0%,0%);stroke-opacity:1;stroke-miterlimit:10;" d="M 108.410156 144.253906 L 104.257812 134.171875 "/>
<path style="fill:none;stroke-width:1.2;stroke-linecap:butt;stroke-linejoin:miter;stroke:rgb(0%,0%,0%);stroke-opacity:1;stroke-miterlimit:10;" d="M 104.257812 134.171875 L 100.105469 124.085938 "/>
<path style=" stroke:none;fill-rule:nonzero;fill:rgb(100%,100%,100%);fill-opacity:1;" d="M 104.410156 138.753906 L 112.410156 138.753906 L 112.410156 149.753906 L 104.410156 149.753906 Z M 104.410156 138.753906 "/>
<g style="fill:rgb(100%,0%,0%);fill-opacity:1;">
  <use xlink:href="#glyph0-3" x="104.410156" y="147.416992"/>
</g>
<path style="fill:none;stroke-width:1.2;stroke-linecap:butt;stroke-linejoin:miter;stroke:rgb(0%,0%,0%);stroke-opacity:1;stroke-miterlimit:10;" d="M 100.105469 124.085938 L 78.488281 121.195312 "/>
<path style="fill:none;stroke-width:1.2;stroke-linecap:butt;stroke-linejoin:miter;stroke:rgb(0%,0%,0%);stroke-opacity:1;stroke-miterlimit:10;" d="M 78.488281 121.195312 L 70.183594 101.023438 "/>
<path style="fill:none;stroke-width:1.2;stroke-linecap:butt;stroke-linejoin:miter;stroke:rgb(0%,0%,0%);stroke-opacity:1;stroke-miterlimit:10;" d="M 72.910156 121.128906 L 66.269531 104.996094 "/>
<path style="fill:none;stroke-width:1.2;stroke-linecap:butt;stroke-linejoin:miter;stroke:rgb(0%,0%,0%);stroke-opacity:1;stroke-miterlimit:10;" d="M 65.171875 138.46875 L 78.488281 121.195312 "/>
<path style="fill:none;stroke-width:1.2;stroke-linecap:butt;stroke-linejoin:miter;stroke:rgb(0%,0%,0%);stroke-opacity:1;stroke-miterlimit:10;" d="M 70.183594 101.023438 L 48.566406 98.132812 "/>
<path style="fill:none;stroke-width:1.2;stroke-linecap:butt;stroke-linejoin:miter;stroke:rgb(0%,0%,0%);stroke-opacity:1;stroke-miterlimit:10;" d="M 48.566406 98.132812 L 35.25 115.40625 "/>
<path style="fill:none;stroke-width:1.2;stroke-linecap:butt;stroke-linejoin:miter;stroke:rgb(0%,0%,0%);stroke-opacity:1;stroke-miterlimit:10;" d="M 51.296875 102.992188 L 40.644531 116.8125 "/>
<path style="fill:none;stroke-width:1.2;stroke-linecap:butt;stroke-linejoin:miter;stroke:rgb(0%,0%,0%);stroke-opacity:1;stroke-miterlimit:10;" d="M 35.25 115.40625 L 43.554688 135.574219 "/>
<path style="fill:none;stroke-width:1.2;stroke-linecap:butt;stroke-linejoin:miter;stroke:rgb(0%,0%,0%);stroke-opacity:1;stroke-miterlimit:10;" d="M 43.554688 135.574219 L 65.171875 138.46875 "/>
<path style="fill:none;stroke-width:1.2;stroke-linecap:butt;stroke-linejoin:miter;stroke:rgb(0%,0%,0%);stroke-opacity:1;stroke-miterlimit:10;" d="M 46.394531 130.777344 L 63.691406 133.09375 "/>
<path style="fill:none;stroke-width:1.2;stroke-linecap:butt;stroke-linejoin:miter;stroke:rgb(0%,0%,0%);stroke-opacity:1;stroke-miterlimit:10;" d="M 138.332031 167.316406 L 125.015625 184.59375 "/>
<path style="fill:none;stroke-width:1.2;stroke-linecap:butt;stroke-linejoin:miter;stroke:rgb(0%,0%,0%);stroke-opacity:1;stroke-miterlimit:10;" d="M 138.332031 167.316406 L 159.949219 170.210938 "/>
<path style="fill:none;stroke-width:1.2;stroke-linecap:butt;stroke-linejoin:miter;stroke:rgb(0%,0%,0%);stroke-opacity:1;stroke-miterlimit:10;" d="M 125.015625 184.59375 L 118.359375 193.230469 "/>
<path style="fill:none;stroke-width:1.2;stroke-linecap:butt;stroke-linejoin:miter;stroke:rgb(20%,80%,80%);stroke-opacity:1;stroke-miterlimit:10;" d="M 118.359375 193.230469 L 111.703125 201.867188 "/>
<path style="fill:none;stroke-width:1.2;stroke-linecap:butt;stroke-linejoin:miter;stroke:rgb(0%,0%,0%);stroke-opacity:1;stroke-miterlimit:10;" d="M 125.015625 184.59375 L 133.65625 191.25 "/>
<path style="fill:none;stroke-width:1.2;stroke-linecap:butt;stroke-linejoin:miter;stroke:rgb(20%,80%,80%);stroke-opacity:1;stroke-miterlimit:10;" d="M 133.65625 191.25 L 142.292969 197.90625 "/>
<path style="fill:none;stroke-width:1.2;stroke-linecap:butt;stroke-linejoin:miter;stroke:rgb(0%,0%,0%);stroke-opacity:1;stroke-miterlimit:10;" d="M 125.015625 184.59375 L 116.378906 177.933594 "/>
<path style="fill:none;stroke-width:1.2;stroke-linecap:butt;stroke-linejoin:miter;stroke:rgb(20%,80%,80%);stroke-opacity:1;stroke-miterlimit:10;" d="M 116.378906 177.933594 L 107.742188 171.277344 "/>
<path style=" stroke:none;fill-rule:nonzero;fill:rgb(100%,100%,100%);fill-opacity:1;" d="M 105.703125 196.367188 L 111.703125 196.367188 L 111.703125 207.367188 L 105.703125 207.367188 Z M 105.703125 196.367188 "/>
<g style="fill:rgb(20%,80%,80%);fill-opacity:1;">
  <use xlink:href="#glyph0-1" x="105.703125" y="205.030273"/>
</g>
<path style=" stroke:none;fill-rule:nonzero;fill:rgb(100%,100%,100%);fill-opacity:1;" d="M 139.292969 192.40625 L 145.292969 192.40625 L 145.292969 203.40625 L 139.292969 203.40625 Z M 139.292969 192.40625 "/>
<g style="fill:rgb(20%,80%,80%);fill-opacity:1;">
  <use xlink:href="#glyph0-1" x="139.292969" y="201.069336"/>
</g>
<path style=" stroke:none;fill-rule:nonzero;fill:rgb(100%,100%,100%);fill-opacity:1;" d="M 101.742188 165.777344 L 107.742188 165.777344 L 107.742188 176.777344 L 101.742188 176.777344 Z M 101.742188 165.777344 "/>
<g style="fill:rgb(20%,80%,80%);fill-opacity:1;">
  <use xlink:href="#glyph0-1" x="101.742188" y="174.44043"/>
</g>
<path style="fill:none;stroke-width:1.2;stroke-linecap:butt;stroke-linejoin:miter;stroke:rgb(0%,0%,0%);stroke-opacity:1;stroke-miterlimit:10;" d="M 157.578125 171.1875 L 161.730469 181.269531 "/>
<path style="fill:none;stroke-width:1.2;stroke-linecap:butt;stroke-linejoin:miter;stroke:rgb(100%,0%,0%);stroke-opacity:1;stroke-miterlimit:10;" d="M 161.730469 181.269531 L 165.882812 191.355469 "/>
<path style="fill:none;stroke-width:1.2;stroke-linecap:butt;stroke-linejoin:miter;stroke:rgb(0%,0%,0%);stroke-opacity:1;stroke-miterlimit:10;" d="M 162.324219 169.234375 L 166.476562 179.316406 "/>
<path style="fill:none;stroke-width:1.2;stroke-linecap:butt;stroke-linejoin:miter;stroke:rgb(100%,0%,0%);stroke-opacity:1;stroke-miterlimit:10;" d="M 166.476562 179.316406 L 170.628906 189.402344 "/>
<path style=" stroke:none;fill-rule:nonzero;fill:rgb(100%,100%,100%);fill-opacity:1;" d="M 164.253906 184.878906 L 172.253906 184.878906 L 172.253906 195.878906 L 164.253906 195.878906 Z M 164.253906 184.878906 "/>
<g style="fill:rgb(100%,0%,0%);fill-opacity:1;">
  <use xlink:href="#glyph0-3" x="164.253906" y="193.541992"/>
</g>
</g>
</svg>

<svg xmlns="http://www.w3.org/2000/svg" xmlns:xlink="http://www.w3.org/1999/xlink" width="300pt" height="300pt" viewBox="0 0 300 300"><defs><symbol overflow="visible"><path d="M.453 1.594v-7.938h4.5v7.938zm.5-.5h3.5v-6.938h-3.5zm0 0"/></symbol><symbol overflow="visible" id="a"><path d="M.89-6.563h3.766v.75h-2.89v1.938h2.61v.734h-2.61V0H.89zm0 0"/></symbol><symbol overflow="visible" id="b"><path d="M.89-6.563H2.08l2.906 5.485v-5.484h.86V0H4.656L1.75-5.484V0H.89zm0 0"/></symbol><symbol overflow="visible" id="c"><path d="M3.547-5.953c-.65 0-1.164.242-1.547.72-.375.48-.563 1.13-.563 1.952 0 .835.188 1.49.563 1.967.383.48.898.72 1.547.72.644 0 1.156-.24 1.53-.72.376-.476.564-1.132.564-1.968 0-.822-.187-1.474-.562-1.954-.375-.477-.887-.72-1.53-.72zm0-.734c.914 0 1.648.312 2.203.937.55.617.828 1.438.828 2.47 0 1.042-.277 1.87-.828 2.483-.555.617-1.29.922-2.203.922-.93 0-1.668-.305-2.22-.922C.774-1.41.5-2.237.5-3.28c0-1.033.273-1.853.828-2.47.55-.625 1.29-.938 2.22-.938zm0 0"/></symbol></defs><g><path fill="#fff" d="M0 0h300v300H0z"/><path d="M264.75 127.063l-10.81-1.446" stroke-width="1.2" stroke="#3cc" stroke-miterlimit="10" fill="none"/><path d="M253.94 125.617l-10.807-1.45" stroke-width="1.2" stroke="#000" stroke-miterlimit="10" fill="none"/><path d="M261.75 121.563h6v11h-6zm0 0" fill="#fff"/><use xlink:href="#a" x="261.75" y="130.226" fill="#3cc"/><path d="M243.133 124.168l-13.317 17.277M237.734 122.762l-10.652 13.824M234.828 104l8.305 20.168M229.816 141.445L208.2 138.55M208.2 138.55l-8.305-20.167M212.113 134.582l-6.644-16.137M208.2 138.55l-13.317 17.278M199.895 118.383l13.316-17.278M213.21 101.105L234.83 104M214.69 106.484l17.294 2.313M194.883 155.828l-10.81-1.45" stroke-width="1.2" stroke="#000" stroke-miterlimit="10" fill="none"/><path d="M184.074 154.38l-10.808-1.446M173.266 152.934l-4.153-10.082" stroke-width="1.2" stroke="#00f" stroke-miterlimit="10" fill="none"/><path d="M169.113 142.852l-4.152-10.086M159.95 170.21l6.66-8.64" stroke-width="1.2" stroke="#000" stroke-miterlimit="10" fill="none"/><path d="M166.61 161.57l6.656-8.636" stroke-width="1.2" stroke="#00f" stroke-miterlimit="10" fill="none"/><path d="M170.266 147.434h7v11h-7zm0 0" fill="#fff"/><use xlink:href="#b" x="170.266" y="156.097" fill="#00f"/><path d="M164.96 132.766l-21.616-2.895M162.117 137.563l-17.293-2.313M143.344 129.87l-13.317 17.278M130.027 147.148l-10.808-1.445" stroke-width="1.2" stroke="#000" stroke-miterlimit="10" fill="none"/><path d="M119.22 145.703l-10.81-1.45" stroke-width="1.2" stroke="#f00" stroke-miterlimit="10" fill="none"/><path d="M130.027 147.148l8.305 20.168M135.605 147.21l6.64 16.138" stroke-width="1.2" stroke="#000" stroke-miterlimit="10" fill="none"/><path d="M108.41 144.254l-4.152-10.082" stroke-width="1.2" stroke="#f00" stroke-miterlimit="10" fill="none"/><path d="M104.258 134.172l-4.153-10.086" stroke-width="1.2" stroke="#000" stroke-miterlimit="10" fill="none"/><path d="M104.41 138.754h8v11h-8zm0 0" fill="#fff"/><use xlink:href="#c" x="104.41" y="147.417" fill="#f00"/><path d="M100.105 124.086l-21.617-2.89M78.488 121.195l-8.304-20.172M72.91 121.13l-6.64-16.134M65.172 138.47l13.316-17.275M70.184 101.023l-21.618-2.89M48.566 98.133L35.25 115.406M51.297 102.992l-10.652 13.82M35.25 115.406l8.305 20.168M43.555 135.574l21.617 2.895M46.395 130.777l17.296 2.317M138.332 167.316l-13.316 17.278M138.332 167.316l21.617 2.895M125.016 184.594l-6.657 8.636" stroke-width="1.2" stroke="#000" stroke-miterlimit="10" fill="none"/><path d="M118.36 193.23l-6.657 8.637" stroke-width="1.2" stroke="#3cc" stroke-miterlimit="10" fill="none"/><path d="M125.016 184.594l8.64 6.656" stroke-width="1.2" stroke="#000" stroke-miterlimit="10" fill="none"/><path d="M133.656 191.25l8.637 6.656" stroke-width="1.2" stroke="#3cc" stroke-miterlimit="10" fill="none"/><path d="M125.016 184.594l-8.637-6.66" stroke-width="1.2" stroke="#000" stroke-miterlimit="10" fill="none"/><path d="M116.38 177.934l-8.638-6.657" stroke-width="1.2" stroke="#3cc" stroke-miterlimit="10" fill="none"/><path d="M105.703 196.367h6v11h-6zm0 0" fill="#fff"/><use xlink:href="#a" x="105.703" y="205.03" fill="#3cc"/><path d="M139.293 192.406h6v11h-6zm0 0" fill="#fff"/><use xlink:href="#a" x="139.293" y="201.069" fill="#3cc"/><path d="M101.742 165.777h6v11h-6zm0 0" fill="#fff"/><use xlink:href="#a" x="101.742" y="174.44" fill="#3cc"/><path d="M157.578 171.188l4.152 10.082" stroke-width="1.2" stroke="#000" stroke-miterlimit="10" fill="none"/><path d="M161.73 181.27l4.153 10.085" stroke-width="1.2" stroke="#f00" stroke-miterlimit="10" fill="none"/><path d="M162.324 169.234l4.153 10.082" stroke-width="1.2" stroke="#000" stroke-miterlimit="10" fill="none"/><path d="M166.477 179.316l4.152 10.086" stroke-width="1.2" stroke="#f00" stroke-miterlimit="10" fill="none"/><path d="M164.254 184.88h8v11h-8zm0 0" fill="#fff"/><use xlink:href="#c" x="164.254" y="193.542" fill="#f00"/></g></svg>
